!!!!SEGMENT: pl-sa--134-a-iii-34--002_graun-carl-heinrich--canite-voce.krn
!!!cenid: 17xx:615
!!!COM: Graun, Carl Heinrich
!!!COM-rismID: pe30001351
!!!CDT: 1704/05/07-1759/08/08
!!!CNT: German
!!!OTL: Canite voce
!!!PDT:
!!!AGN: Sacred
!!!SMS-siglum: PL-SA
!!!SMS-shelfmark: 134/A III 34
!!!SMS-shelfwork: 002 W
!!!SMS-variant:
!!!SMS-altvar:
!!!NIFC-rismSourceID: 1001041281
!!!NIFC-rismChildID: 1001041281
!!!NIFC-islandoraID: none
!!!URL-pdf-islandora:
!!!URL-scan: https://bc.bdsandomierz.pl/dlibra/publication/1491/edition/1459/content @EN{Scan in the Sandomierz Diocese Digital Library} @PL{Skany w portalu Cyfrowa Biblioteka Diecezjalna w Sandomierzu}
!!!ONB-nifc:
!!!AIN: 2 empty 1 viola 2 violn
!!!key:
**kern	**fba	**dynam	**kern	**dynam	**kern	**dynam	**kern	**dynam	**kern	**text
*part5	*	*part5	*part4	*part4	*part3	*part3	*part2	*part2	*part1	*part1
*group2	*	*	*group2	*	*group2	*	*group2	*	*group1	*
*staff5	*	*	*staff4	*	*staff3	*	*staff2	*	*staff1	*staff1
*Iempty	*	*	*Iviola	*	*Ivioln	*	*Ivioln	*	*Iempty	*
*I"Baſso	*	*	*I"Viola	*	*I"Violino 2do.	*	*I"Violino 1mo	*	*I"	*
*I'b.c.	*	*	*I'vla	*	*I'vl II	*	*I'vl I	*	*I'	*
*clefF4	*	*	*clefC3	*	*clefG2	*	*clefG2	*	*clefC1	*
*k[]	*	*	*k[]	*	*k[]	*	*k[]	*	*k[]	*
*C:	*	*	*C:	*	*C:	*	*C:	*	*C:	*
*M4/4	*	*	*M4/4	*	*M4/4	*	*M4/4	*	*M4/4	*
*met(c)	*	*	*met(c)	*	*met(c)	*	*met(c)	*	*met(c)	*
=1	=1	=1	=1	=1	=1	=1	=1	=1	=1	=1
!	!	!	!	!	!	!	!	!	!LO:TX:a:t=problem:brak oznaczenia tempa	!
!LO:TX:a:t=problem:brak oznaczenia tempa	!	!	!LO:TX:a:B:t=Allegro	!	!LO:TX:a:B:t=Allegro	!	!LO:TX:a:t=problem:brak oznaczenia tempa	!	!LO:TX:a:t=10	!
!LO:TX:a:t=Aria 2da	!	!	!LO:TX:a:t=Aria 2da	!	!LO:TX:a:t=Aria 2da	!	!LO:TX:a:t=Aria 2da	!	!LO:TX:a:t=Aria 2da	!
!	!	!	!	!	!	!	!	!	!LO:TX:a:t=problem:brak nazwy partii	!
4C/	.	.	4e\	.	8cc\L	.	8cc\L	.	00r	.
.	.	.	.	.	(16ee\L	.	(16ee\L	.	.	.
.	.	.	.	.	16cc\JJ)	.	16cc\JJ)	.	.	.
4r	.	.	4r	.	(16gg\LL	.	(16gg\LL	.	.	.
.	.	.	.	.	16ee\)	.	16ee\)	.	.	.
.	.	.	.	.	(16ccc\	.	(16ccc\	.	.	.
.	.	.	.	.	16gg\JJ)	.	16gg\JJ)	.	.	.
!LO:TX:a:t=problem:niejednoznaczny zapis artykulacji [przyjęto staccatissimo]:global	!	!	!LO:TX:a:t=problem:niejednoznaczny zapis artykulacji [przyjęto staccatissimo]:global	!	!LO:TX:a:t=problem:niejednoznaczny zapis artykulacji [przyjęto staccatissimo]:global	!	!LO:TX:a:t=problem:niejednoznaczny zapis artykulacji [przyjęto staccatissimo]:global	!	!	!
8F`\L	.	.	8cc`\L	.	8aa`\L	.	8aa`\L	.	.	.
8E`\J	.	.	8cc`\J	.	8gg`\J	.	8gg`\J	.	.	.
4r	.	.	4r	.	4r	.	4r	.	.	.
=2	=2	=2	=2	=2	=2	=2	=2	=2	=2	=2
2rC	.	.	2rB	.	8g\L	.	8g\L	.	.	.
.	.	.	.	.	(16cc\L	.	(16cc\L	.	.	.
.	.	.	.	.	16g\JJ)	.	16g\JJ)	.	.	.
.	.	.	.	.	16ee\LL	.	(16ee\LL	.	.	.
.	.	.	.	.	16cc\	.	16cc\)	.	.	.
.	.	.	.	.	16gg\	.	(16gg\	.	.	.
.	.	.	.	.	16ee\JJ	.	16ee\JJ)	.	.	.
8BB/L	6 5	.	8g`\L	.	8dd`\L	.	8ff`\L	.	.	.
8C/J	.	.	8g`\J	.	8cc`\J	.	8ee`\J	.	.	.
4r	.	.	4r	.	4r	.	4r	.	.	.
=3	=3	=3	=3	=3	=3	=3	=3	=3	=3	=3
8c\L	.	.	8e\L	.	4cc\	.	4cc\	.	.	.
8c\	.	.	8e\	.	.	.	.	.	.	.
8c\	.	.	8g\	.	16ee\LL	.	(16ee\LL	.	.	.
.	.	.	.	.	16gg\	.	16gg\)	.	.	.
8c\J	.	.	8a\J	.	16ff#X\	.	(16ff#X\	.	.	.
!	!	!	!	!	!LO:TX:a:t=problem:custos gg	!	!	!	!	!
.	.	.	.	.	16aa\JJ	.	16aa\JJ)	.	.	.
!	!	!	!	!	!LO:LB:g=original	!	!	!	!	!
8B\L	6	.	8d\L	.	16gg\LL	.	(16gg\LL	.	.	.
.	.	.	.	.	16bb\	.	16bb\)	.	.	.
8B\	.	.	8d\	.	16aa\	.	(16aa\	.	.	.
.	.	.	.	.	16gg\JJ	.	16gg\JJ)	.	.	.
8B\	.	.	8d\	.	16ff#X\LL	.	16ff#X\LL	.	.	.
.	.	.	.	.	16gg\	.	16gg\	.	.	.
8B\J	.	.	8g\J	.	16dd\	.	16dd\	.	.	.
.	.	.	.	.	16gg\JJ	.	16gg\JJ	.	.	.
=4	=4	=4	=4	=4	=4	=4	=4	=4	=4	=4
*	*	*	*	*	*2\right	*	*2\right	*	*	*
!	!	!	!	!	!LO:TX:a:t=problem:główki półnut w kształcie romba:global	!	!LO:TX:a:t=problem:główki półnut w kształcie romba:global	!	!	!
.	.	.	.	.	4qqdd/	.	4qqdd/	.	.	.
8A\L	7	.	8g\L	.	2ccT\	.	2ccT\	.	.	.
8A\	.	.	8g\	.	.	.	.	.	.	.
8A\	.	.	8f#X\	.	.	.	.	.	.	.
8A\J	.	.	8f#\J	.	.	.	.	.	.	.
!	!	!	!	!	!	!	!LO:LB:g=original	!	!	!
8G\	6|	.	8g\	.	8b/	.	8b/	.	.	.
!LO:TX:a:t=problem:klamra łukowa z numerem	!	!	!LO:TX:a:t=problem:klamra łukowa z numerem:global	!	!LO:TX:a:t=problem:klamra łukowa z numerem:global	!	!LO:TX:a:t=problem:klamra łukowa z numerem	!	!	!
!	!	!	!	!	!LO:TUP:b	!	!LO:TUP:b	!	!	!
24G\LL	.	.	24g\LL	.	24g/LL	.	(24g/LL	.	.	.
24F#X\	.	.	24f#\	.	24f#X/	.	24f#X/	.	.	.
24E\JJ	.	.	24e\JJ	.	24e/JJ	.	24e/JJ)	.	.	.
!LO:LB:g=original	!	!	!	!	!	!	!	!	!	!
8D/L	.	.	8d/L	.	8d/L	.	8d/L	.	.	.
8C/J	.	.	8c/J	.	8c/J	.	8c/J	.	.	.
!	!	!	!LO:LB:g=original	!	!	!	!	!	!	!
=5	=5	=5	=5	=5	=5	=5	=5	=5	=5	=5
4BB/	.	.	4B/	.	8B/L	.	8B/L	.	00r	.
.	.	.	.	.	(32g/LL	.	(32g/LL	.	.	.
.	.	.	.	.	32a/	.	32a/	.	.	.
.	.	.	.	.	32b/	.	32b/	.	.	.
.	.	.	.	.	32cc/JJJ)	.	32cc/JJJ)	.	.	.
8r	.	.	8r	.	16dd\LL	.	16dd\LL	.	.	.
.	.	.	.	.	16g\	.	16g\	.	.	.
8BB/	.	.	8g\	.	16ff\	.	16ff\	.	.	.
.	.	.	.	.	16dd\JJ	.	16dd\JJ	.	.	.
8C/	.	.	8g\	.	8ee\	.	8ee\	.	.	.
*	*	*	*	*	*Xtuplet	*	*Xtuplet	*	*	*
!LO:TX:a:t=problem:triola pod klamrą łukową	!	!	!LO:TX:a:t=problem:klamra łukowa, kropka zamiast numeru	!	!LO:TX:a:t=problem:klamra łukowa bez numeru	!	!LO:TX:a:t=problem:klamra łukowa bez numeru	!	!	!
24c\LL	.	.	24cc\LL	.	(24cc\LL	.	(24cc\LL	.	.	.
24B\	.	.	24b\	.	24b\	.	24b\	.	.	.
24A\JJ	.	.	24a\JJ	.	24a\JJ)	.	24a\JJ)	.	.	.
8G\L	.	.	8g\L	.	8g/L	.	8g/L	.	.	.
8F\J	.	.	8f\J	.	8f/J	.	8f/J	.	.	.
=6	=6	=6	=6	=6	=6	=6	=6	=6	=6	=6
!	!	!	!	!	!LO:TX:a:t=problem:mixed beam	!	!LO:TX:a:t=problem:mixed beam	!	!	!
4E\	.	.	4e\	.	8e/L	.	8e/L	.	.	.
!	!	!	!	!	!	!	!LO:TX:a:t=problem:niejednoznaczny zapis łuku	!	!	!
.	.	.	.	.	(32cc\LL	.	(32cc\LL	.	.	.
.	.	.	.	.	32dd\	.	32dd\	.	.	.
.	.	.	.	.	32ee\	.	32ee\	.	.	.
.	.	.	.	.	32ff\JJJ)	.	32ff\JJJ	.	.	.
8r	.	.	8r	.	16gg\LL	.	16gg\LL)	.	.	.
.	.	.	.	.	16cc\	.	16cc\	.	.	.
8E\	.	.	8c/	.	16bb-X\	.	16bb-X\	.	.	.
.	.	.	.	.	16gg\JJ	.	16gg\JJ	.	.	.
4F\	.	.	4f\	.	8aa\L	.	8aa\L	.	.	.
!	!	!	!	!	!	!	!LO:TX:a:t=problem:niejednoznaczny zapis łuku	!	!	!
.	.	.	.	.	(32dd\LL	.	(32dd\LL	.	.	.
.	.	.	.	.	32ee\	.	32ee\	.	.	.
.	.	.	.	.	32ff\	.	32ff\	.	.	.
.	.	.	.	.	32gg\JJJ)	.	32gg\JJJ	.	.	.
!	!	!	!	!	!LO:LB:g=original	!	!	!	!	!
8r	.	.	8r	.	16aa\LL	.	16aa\LL)	.	.	.
.	.	.	.	.	16dd\	.	16dd\	.	.	.
8F#X\	.	.	8d\	.	16ccc\	.	16ccc\	.	.	.
.	.	.	.	.	16aa\JJ	.	16aa\JJ	.	.	.
=7	=7	=7	=7	=7	=7	=7	=7	=7	=7	=7
!	!	!	!	!	!	!	!LO:TX:a:t=problem:niejednoznaczny zapis łuku	!	!	!
4G\	.	.	4g\	.	8bbn\L	.	(8bbn\L	.	.	.
.	.	.	.	.	(32gg\LL	.	32gg\LL	.	.	.
.	.	.	.	.	32aa\	.	32aa\	.	.	.
.	.	.	.	.	32bb\	.	32bb\	.	.	.
.	.	.	.	.	32ccc\JJJ)	.	32ccc\JJJ	.	.	.
8r	.	.	8r	.	16ddd\LL	.	16ddd\LL	.	.	.
.	.	.	.	.	16gg\	.	16gg\)	.	.	.
8B\	.	.	8g\	.	16ddd\	.	16ddd\	.	.	.
.	.	.	.	.	16ff\JJ	.	16ff\JJ	.	.	.
!	!	!	!	!	!	!	!LO:LB:g=original	!	!	!
8c\L	.	.	8g\L	.	16ee\LL	.	16ee\LL	.	.	.
.	.	.	.	.	16gg\	.	16gg\	.	.	.
8E\	.	.	8g\	.	16cc\	.	16cc\	.	.	.
.	.	.	.	.	16ee\JJ	.	16ee\JJ	.	.	.
8F\	.	.	8f\	.	16a\LL	.	16a\LL	.	.	.
.	.	.	.	.	16cc\	.	16cc\	.	.	.
8G\J	.	.	8d\J	.	16b\	.	16b\	.	.	.
.	.	.	.	.	16dd\JJ	.	16dd\JJ	.	.	.
=8	=8	=8	=8	=8	=8	=8	=8	=8	=8	=8
!	!	!	!	!	!	!LO:DY:a	!	!	!	!
4C/	.	.	4e\	.	8cc\L	p	8cc\L	.	.	.
!	!	!	!	!	!	!	!	!LO:DY:a	!	!
.	.	.	.	.	(32cc\LL	.	(32cc\LL	p	.	.
.	.	.	.	.	32dd\	.	32dd\	.	.	.
.	.	.	.	.	32ee\	.	32ee\	.	.	.
.	.	.	.	.	32ff\JJJ)	.	32ff\JJJ)	.	.	.
8r	.	.	8r	.	16gg\LL	.	16gg\LL	.	.	.
.	.	.	.	.	16cc\	.	16cc\	.	.	.
!	!	!LO:DY:a	!	!	!	!	!	!	!	!
8E\	.	p	8c/	.	16bb-X\	.	16bb-X\	.	.	.
.	.	.	.	.	16gg\JJ	.	16gg\JJ	.	.	.
!	!	!	!	!LO:DY:a	!	!	!	!	!	!
4F\	.	.	4f\	p	8aa\L	.	8aa\L	.	.	.
.	.	.	.	.	32dd\LL	.	(32dd\LL	.	.	.
.	.	.	.	.	32ee\	.	32ee\	.	.	.
.	.	.	.	.	32ff\	.	32ff\	.	.	.
.	.	.	.	.	32gg\JJJ	.	32gg\JJJ)	.	.	.
8r	.	.	8r	.	16aa\LL	.	16aa\LL	.	.	.
.	.	.	.	.	16dd\	.	16dd\	.	.	.
8F#X\	.	.	8d\	.	16ccc\	.	16ccc\	.	.	.
.	.	.	.	.	16aa\JJ	.	16aa\JJ	.	.	.
=9	=9	=9	=9	=9	=9	=9	=9	=9	=9	=9
4G\	.	.	4g\	.	8bb\L	.	8bb\L	.	0r	.
!	!	!	!	!	!	!	!LO:TX:a:t=problem:niejednoznaczny zapis łuku	!	!	!
!	!	!	!	!	!	!	!	!LO:DY:t=for	!	!
!	!	!	!	!	!	!	!	!LO:DY:a	!	!
.	.	.	.	.	(32gg\LL	.	(32gg\LL	f	.	.
.	.	.	.	.	32aa\	.	32aa\	.	.	.
.	.	.	.	.	32bb\	.	32bb\	.	.	.
.	.	.	.	.	32ccc\JJJ)	.	32ccc\JJJ	.	.	.
!	!	!	!	!	!LO:LB:g=original	!	!	!	!	!
8r	.	.	8r	.	16ddd\LL	.	16ddd\LL)	.	.	.
.	.	.	.	.	16gg\	.	16gg\	.	.	.
!	!	!LO:DY:t=for	!	!	!	!	!	!	!	!
!	!	!LO:DY:a	!	!LO:DY:t=for	!	!	!	!	!	!
8B\	.	f	8g\	f	16ddd\	.	16ddd\	.	.	.
.	.	.	.	.	16ff\JJ	.	16ff\JJ	.	.	.
!LO:LB:g=original	!	!	!	!	!	!	!	!	!	!
8c\L	.	.	8g\L	.	16ee\LL	.	16ee\LL	.	.	.
.	.	.	.	.	16gg\	.	16gg\	.	.	.
8E\	.	.	8g\	.	16cc\	.	16cc\	.	.	.
.	.	.	.	.	16ee\JJ	.	16ee\JJ	.	.	.
8F\	.	.	8f\	.	16a\LL	.	16a\LL	.	.	.
.	.	.	.	.	16cc\	.	16cc\	.	.	.
8G\J	.	.	8d\J	.	16b\	.	16b\	.	.	.
.	.	.	.	.	16dd\JJ	.	16dd\JJ	.	.	.
!	!	!	!LO:LB:g=original	!	!	!	!	!	!	!
=10	=10	=10	=10	=10	=10	=10	=10	=10	=10	=10
!LO:TX:a:t=problem:mixed beam	!	!	!	!	!	!	!	!	!	!
8C/L	.	.	8c\L	.	8cc\L	.	8cc\L	.	.	.
16c\L	.	.	16cc\L	.	16cc\L	.	16cc\L	.	.	.
16G\JJ	.	.	16g\JJ	.	16g\JJ	.	16g\JJ	.	.	.
16c\LL	.	.	16cc\LL	.	16cc\LL	.	16cc\LL	.	.	.
16G\	.	.	16g\	.	16g\	.	16g\	.	.	.
16E\	.	.	16e\	.	16e\	.	16e\	.	.	.
16G\JJ	.	.	16g\JJ	.	16g\JJ	.	16g\JJ	.	.	.
4C/	.	.	4c/	.	4c/	.	4c/	.	.	.
4r	.	.	4r	.	4r	.	4r	.	.	.
!	!	!	!	!	!	!	!LO:LB:g=original	!	!	!
=11	=11	=11	=11	=11	=11	=11	=11	=11	=11	=11
!	!	!	!	!	!	!	!LO:TX:a:t=problem:pauza półnutowa nad 2 linią	!	!	!
!	!	!	!	!	!	!	!LO:TX:a:t=[segno]	!	!LO:TX:a:t=problem:znak segno	!
!	!	!	!LO:TX:a:t=[segno]	!	!LO:TX:a:t=[segno]	!	!LO:TX:b:t=Vox	!	!LO:TX:a:t=[segno]	!
2rC	.	.	2rB	.	2rg	.	2ra	.	8cc\	Ca-
.	.	.	.	.	.	.	.	.	16cc\	-ni-
.	.	.	.	.	.	.	.	.	16cc\	-te
.	.	.	.	.	.	.	.	.	8cc\	vo-
.	.	.	.	.	.	.	.	.	8cc\	-ce
!	!	!	!	!LO:DY:a	!	!LO:DY:a	!	!LO:DY:a	!	!
8F`\L	.	.	8f`\L	f	8cc`\L	f	8aa`\L	f	8aa\	la-
8E`\J	.	.	8e\J	.	8cc`\J	.	8gg`\J	.	8gg\	-tã
4r;	.	.	4r;	.	4r;	.	4r;	.	4r;	.
=12	=12	=12	=12	=12	=12	=12	=12	=12	=12	=12
!	!	!	!LO:TX:a:t=problem:brak pauzy półnutowej	!	!	!	!LO:TX:a:t=problem:pauza półnutowa nad 2 linią	!	!	!
2rC	.	.	2ryy	.	2r	.	2r	.	8g/	An-
.	.	.	.	.	.	.	.	.	16g/	-dre-
.	.	.	.	.	.	.	.	.	16g/	-a
.	.	.	.	.	.	.	.	.	8g/	jam
.	.	.	.	.	.	.	.	.	8g/	fa-
8BB/L	6 5	.	8g`\L	.	8dd`\L	.	8ff`\L	.	8ff\	-ce-
!	!	!	!	!	!	!	!	!	!LO:LB:g=original	!
8C/J	.	.	8g`\J	.	8cc`\J	.	8ee`\J	.	8ee\	-ta
4r;	.	.	4r;	.	4r;	.	4r;	.	4r;	.
=13	=13	=13	=13	=13	=13	=13	=13	=13	=13	=13
!	!	!	!	!	!	!	!	!LO:DY:t=piano	!	!
!	!	!LO:DY:a	!	!LO:DY:a	!	!	!	!LO:DY:a	!	!
8c\L	.	p	8g\L	p	8cc\L	.	8ee\L	p	4cc\	can-
8c\	.	.	8g\	.	8cc\	.	8ee\	.	.	.
8c\	.	.	8g\	.	8cc\	.	8ee\	.	16ee\LL	-ta-
.	.	.	.	.	.	.	.	.	16cc\JJ	.
8c\J	.	.	8g\J	.	8cc\J	.	8ee\J	.	16gg\LL	.
.	.	.	.	.	.	.	.	.	16ee\JJ	.
8G\L	6 4	.	8g\L	.	8cc\L	.	8ee\L	.	(4ee\	.
8G\	.	.	8g\	.	8cc\	.	8ee\	.	.	.
8G\	5 3	.	8g\	.	8b\	.	8dd\	.	8dd\)	-ta
8G\J	.	.	8g\J	.	8b\J	.	8dd\J	.	8gg\	can-
=14	=14	=14	=14	=14	=14	=14	=14	=14	=14	=14
*	*	*	*	*	*tuplet	*	*tuplet	*	*2\right	*
!	!	!	!	!	!	!	!	!	!LO:TX:a:t=problem:główki półnut w kształcie romba:global	!
.	.	.	.	.	.	.	.	.	4qqdd/	.
8F#X\L	6	.	8a\L	.	8a/L	.	8dd\L	.	2cc\	-ta-
8F#\	.	.	8a\	.	8a/	.	8dd\	.	.	.
8F#\	5	.	8d\	.	8a/	.	8cc\	.	.	.
8F#\J	.	.	8d\J	.	8a/J	.	8cc\J	.	.	.
!	!	!	!	!	!LO:LB:g=original	!	!	!	!	!
8G\	.	.	8d\	.	8g/	.	8b\	.	4b\	-te
!LO:LB:g=original	!	!LO:DY:a	!	!	!LO:TX:a:t=problem:triola pod klamrą łukową	!	!LO:TUP:b	!LO:DY:a	!	!
!LO:TX:a:t=problem:triola pod klamrą łukową	!	!	!LO:TX:a:t=problem:triola pod klamrą łukową	!	!LO:TUP:b	!	!	!LO:DY:t=for	!	!
!	!	!LO:DY:t=fo	!	!	!	!	!	!	!	!
24G\LL	.	f	24g\LL	.	24g/LL	.	(24g/LL	f	.	.
24F#X\	.	.	24f#X\	.	24f#X/	.	24f#X/	.	.	.
24E\JJ	.	.	24e\JJ	.	24e/JJ	.	24e/JJ)	.	.	.
8D/L	.	.	8d/L	.	8d/L	.	8d/L	.	4r	.
8C/J	.	.	8c/J	.	8c/J	.	8c/J	.	.	.
=15	=15	=15	=15	=15	=15	=15	=15	=15	=15	=15
4BB/	.	.	4B/	.	4B/	.	4B/	.	8r	.
.	.	.	.	.	.	.	.	.	8g/	An-
4r	.	.	4r	.	4r	.	4r	.	8b/	-dre-
.	.	.	.	.	.	.	.	.	8dd\	-a
8r	.	.	8r	.	8r	.	8r	.	(8.ee\L	vo-
!	!	!LO:DY:a	!LO:LB:g=original	!LO:DY:a	!	!	!	!LO:DY:a	!	!
8C/L	.	p	8g\L	p	8cc\L	.	8ee\L	p	.	.
.	.	.	.	.	.	.	.	.	16ff#X\K	.
8C/	.	.	8g\	.	8cc\	.	8ee\	.	8gg\J)	.
8C/J	.	.	8g\J	.	8cc\J	.	8ee\J	.	8ee\	-ce
=16	=16	=16	=16	=16	=16	=16	=16	=16	=16	=16
8D\L	.	.	8g\L	.	8b/L	.	8dd\L	.	4dd\	la-
8D\	.	.	8g\	.	8b/	.	8dd\	.	.	.
!	!	!	!	!	!	!	!	!	!LO:LB:g=original	!
8D\	.	.	8f#X\	.	8a/	.	8cc\	.	4ccT\	.
8D\J	.	.	8f#\J	.	8a/J	.	8cc\J	.	.	.
8GG/	.	.	8g\	.	8g/	.	8b/	.	4b\	-ta
!	!	!	!	!	!LO:TX:a:t=problem:triola pod klamrą łukową	!	!LO:TX:a:t=problem:klamra łukowa bez numeru	!LO:DY:a	!	!
*Xtuplet	*	*	*	*	*	*	*	*	*	*
!LO:TX:a:t=problem:brak oznaczenia trioli	!	!	!LO:TX:a:t=problem:triola pod klamrą łukową	!	!LO:TUP:b	!	!	!LO:DY:t=for	!	!
24G\LL	.	.	24g\LL	.	24g/LL	.	(24g/LL	f	.	.
24F#X\	.	.	24f#X\	.	24f#X/	.	24f#X/	.	.	.
24E\JJ	.	.	24e\JJ	.	24e/JJ	.	24e/JJ)	.	.	.
!	!	!	!	!	!	!	!LO:LB:g=original	!	!	!
8D/L	.	.	8d\L	.	8d/L	.	8d/L	.	4r	.
8C/J	.	.	8c\J	.	8c/J	.	8c/J	.	.	.
=17	=17	=17	=17	=17	=17	=17	=17	=17	=17	=17
4BB/	.	.	4B/	.	4B/	.	4B/	.	8r	.
.	.	.	.	.	.	.	.	.	8dd\	An-
8r	.	.	8r	.	8r	.	8r	.	8dd\	-dre-
!	!	!	!	!LO:DY:a	!	!	!	!	!	!
8BB/	6	.	8B/	p	8g/	.	8dd\	.	8dd\	-a
!	!	!	!	!	!	!	!	!LO:DY:t=piano	!	!
!	!	!	!	!	!	!	!	!LO:DY:a	!	!
8C/L	.	.	8c/L	.	8g/L	.	8ee\L	p	(16ee\LL	can-
.	.	.	.	.	.	.	.	.	16dd\JJ)	.
8C/	.	.	8c/	.	8g/	.	8ee\	.	4.cc\	.
8C/	.	.	8c/	.	8g/	.	8ee\	.	.	.
8C/J	.	.	8c/J	.	8g/J	.	8ee\J	.	.	.
=18	=18	=18	=18	=18	=18	=18	=18	=18	=18	=18
8C/L	6	.	8c/L	.	8a/L	.	8ee\L	.	(16cc\LL	.
.	.	.	.	.	.	.	.	.	16b\JJ)	.
8C/	.	.	8c/	.	8a/	.	8ee\	.	4.a\	-ta-
8C/	.	.	8c/	.	8a/	.	8ee\	.	.	.
8C/J	.	.	8c/J	.	8a/J	.	8ee\J	.	.	.
8C/L	.	.	8c\L	.	8aa\L	.	8ccc\L	.	8a\L	.
8C/	.	.	8c\	.	8aa\	.	8ccc\	.	16b\L	.
.	.	.	.	.	.	.	.	.	16cc\JJ	.
8C/	.	.	8c\	.	8aa\	.	8ccc\	.	16dd\LL	.
.	.	.	.	.	.	.	.	.	16ee\	.
8C/J	.	.	8c\J	.	8aa\J	.	8ccc\J	.	16ff#X\	.
.	.	.	.	.	.	.	.	.	16gg\JJ	.
!LO:LB:g=original	!	!	!	!	!	!	!	!	!	!
=19	=19	=19	=19	=19	=19	=19	=19	=19	=19	=19
8C/L	6	.	8c/L	.	8aa\L	.	8ccc\L	.	4aa\	.
8C/	.	.	8c/	.	8aa\	.	8ccc\	.	.	.
8C#X/	5	.	8c#X/	.	8gg\	.	8bb\	.	4gg\	.
8C#/J	.	.	8c#/J	.	8gg\J	.	8bb\J	.	.	.
!	!	!	!	!	!LO:LB:g=original	!	!	!	!	!
8D\L	#	.	8d\L	.	4ff#X\	.	4aa\	.	16ff#X\LL	.
.	.	.	.	.	.	.	.	.	16dd\	.
8D\	.	.	8d\	.	.	.	.	.	16a\	.
.	.	.	.	.	.	.	.	.	16f#X\JJ	.
!	!	!	!	!LO:DY:t=forte	!	!	!	!	!	!
!	!	!	!	!LO:DY:a	!	!	!	!	!	!
8D\	.	.	8d\	f	8r	.	8r	.	4d/	-te
!	!	!	!	!	!	!	!	!LO:DY:t=for	!	!
!	!	!LO:DY:a	!	!	!	!	!	!LO:DY:a	!	!
8D\J	.	f	8d\J	.	8d/	.	8d/	f	.	.
!	!	!	!LO:TX:a:t=problem:triola pod klamrą łukową	!	!	!	!	!	!	!
=20	=20	=20	=20	=20	=20	=20	=20	=20	=20	=20
8D\L	.	.	8d\L	.	4d`/	.	4d`/	.	8r	.
!	!	!LO:DY:a	!	!LO:DY:a	!	!	!	!	!LO:TX:a:t=problem:dźwięk nieczytelny	!
8D\	.	p	8d\	p	.	.	.	.	8ff#X\	can-
!	!	!	!	!	!LO:DY:t=piano	!LO:DY:a	!	!LO:DY:a	!LO:LB:g=original	!
8D\	.	.	8d\	.	8.aT/L	p	8.ff#Xt\L	p	8.ff#t\L	-ta-
8D\J	.	.	8d\J	.	.	.	.	.	.	.
.	.	.	.	.	32g/LL	.	32ee\LL	.	32ee\LL	.
.	.	.	.	.	32a/JJJ	.	32ff#\JJJ	.	32ff#\JJJ	.
8D\L	6: 4:	.	8d\L	.	4b/	.	4gg`\	.	16gg\LL	.
.	.	.	.	.	.	.	.	.	16dd\	.
!	!	!	!	!LO:DY:a	!	!	!	!	!	!
!	!	!	!	!LO:DY:t=for	!	!	!	!	!	!
8D\	.	.	8d\	f	.	.	.	.	16b\	.
.	.	.	.	.	.	.	.	.	16g\JJ	.
8D\	.	.	8d\	.	8r	.	8r	.	4d/	-te
!	!	!	!	!	!	!LO:DY:t=for	!LO:DY:t=for	!	!	!
!	!	!LO:DY:a	!	!	!	!LO:DY:a	!	!LO:DY:a	!	!
8D\J	.	f	8d\J	.	8d/	f	8d/	f	.	.
=21	=21	=21	=21	=21	=21	=21	=21	=21	=21	=21
!	!	!LO:DY:a	!	!	!	!	!	!	!	!
8D\L	.	p	8d\L	.	4d`/	.	4d`/	.	8r	.
8D\	.	.	8d\	.	.	.	.	.	8gg\	can-
!	!	!	!	!	!	!LO:DY:a	!LO:DY:t=piano	!LO:DY:a	!	!
8D\	.	.	8d\	.	8.bt\L	p	8.ggT\L	p	8.ggT\L	-ta-
8D\J	.	.	8d\J	.	.	.	.	.	.	.
.	.	.	.	.	32a\LL	.	32ff#X\LL	.	32ff#X\LL	.
.	.	.	.	.	32b\JJJ	.	32gg\JJJ	.	32gg\JJJ	.
8D\L	.	.	8d\L	.	4cc`\	.	4aa`\	.	16aa\LL	.
.	.	.	.	.	.	.	.	.	16gg\	.
8D\	.	.	8d\	.	.	.	.	.	16ff#X\	.
.	.	.	.	.	.	.	.	.	16ee\JJ	.
8D\	.	.	8f#X\	.	4a`/	.	4cc`\	.	16dd\LL	.
.	.	.	.	.	.	.	.	.	16cc\	.
8D\J	.	.	8f#\J	.	.	.	.	.	16b\	.
.	.	.	.	.	.	.	.	.	16a\JJ	.
=22	=22	=22	=22	=22	=22	=22	=22	=22	=22	=22
!	!	!	!LO:TX:a:t=problem:mixed beam	!	!	!	!	!	!	!
8GG/L	.	.	8g\L	.	8g/L	.	8b\L	.	16b\LL	.
.	.	.	.	.	.	.	.	.	16g\	.
8GG/	.	.	8G/	.	8b/J	.	8dd\J	.	16dd\	.
.	.	.	.	.	.	.	.	.	16b\JJ	.
8GG/	6 4	.	8G/	.	4cc\	.	4ee\	.	4ee\	.
8GG/J	.	.	8G/J	.	.	.	.	.	.	.
!	!	!	!	!	!	!	!LO:LB:g=original	!	!	!
8GG/L	5 3	.	8G/L	.	16b\LL	.	16dd\LL	.	16dd\LL	.
.	.	.	.	.	16gg\	.	16bb\	.	16gg\	.
8GG/	.	.	8G/	.	16ff#X\	.	16aa\	.	16ff#X\	.
.	.	.	.	.	16ee\JJ	.	16gg\JJ	.	16ee\JJ	.
8GG/	.	.	8G/	.	16dd\LL	.	16ff#X\LL	.	16dd\LL	.
.	.	.	.	.	16cc\	.	16ee\	.	16cc\	.
8GG/J	.	.	8G/J	.	16b\	.	16dd\	.	16b\	.
.	.	.	.	.	16a\JJ	.	16cc\JJ	.	16a\JJ	.
=23	=23	=23	=23	=23	=23	=23	=23	=23	=23	=23
8GG/L	.	.	8G/L	.	8g/L	.	8b\L	.	16b\LL	.
.	.	.	.	.	.	.	.	.	16g\	.
8GG/	.	.	8G/	.	8b/J	.	8dd\J	.	16dd\	.
.	.	.	.	.	.	.	.	.	16b\JJ	.
8GG/	6 4	.	8G/	.	4cc\	.	4ee\	.	4ee\	.
8GG/J	.	.	8G/J	.	.	.	.	.	.	.
!	!	!	!	!	!	!	!	!	!LO:LB:g=original	!
8GG/L	5 3	.	8G/L	.	16b\LL	.	16dd\LL	.	16dd\LL	.
.	.	.	.	.	16gg\	.	16bb\	.	16gg\	.
8GG/	.	.	8G/	.	16ff#X\	.	16aa\	.	16ff#X\	.
.	.	.	.	.	16ee\JJ	.	16gg\JJ	.	16ee\JJ	.
8GG/	.	.	8G/	.	16dd\LL	.	16ff#X\LL	.	16dd\LL	.
.	.	.	.	.	16cc\	.	16ee\	.	16cc\	.
8GG/J	.	.	8G/J	.	16b\	.	16dd\	.	16b\	.
.	.	.	.	.	16a\JJ	.	16cc\JJ	.	16a\JJ	.
!LO:LB:g=original	!	!	!	!	!LO:LB:g=original	!	!	!	!	!
=24	=24	=24	=24	=24	=24	=24	=24	=24	=24	=24
!	!	!	!	!	!	!LO:DY:t=for	!	!	!	!
!LO:TX:a:t=problem:triola pod klamrą łukową	!	!	!	!LO:DY:t=fo	!	!LO:DY:a	!	!LO:DY:a	!	!
8GG/	.	.	8G/	f	8g/	f	8b\	f	4b\	-te
*tuplet	*	*	*	*	*	*	*Xtuplet	*	*	*
!	!	!	!	!	!LO:TUP:b	!	!	!	!	!
!	!	!	!LO:TX:a:t=problem:triola pod klamrą łukową	!	!LO:TX:a:t=problem:triola pod klamrą łukową	!	!LO:TX:a:t=problem:triola bez numeru i łuku	!	!	!
(24G\LL	.	.	24g\LL	.	24g/LL	.	24g/LL	.	.	.
!	!	!	!	!	!	!	!LO:TX:a:t=SIC:s=16f#	!	!	!
24F#X\	.	.	24f#X\	.	24f#X/	.	24f/	.	.	.
24E\JJ)	.	.	24e\JJ	.	24e/JJ	.	24e/JJ	.	.	.
8D/L	.	.	8d\L	.	8d/L	.	8d/L	.	8r	.
8C#X/J	.	.	8c#X\J	.	8c#X/J	.	8c#X/J	.	8cc#X\	can-
!	!	!	!LO:LB:g=original	!	!	!	!	!	!	!
4D/	.	.	4d\	.	4d/	.	4d/	.	4dd\	-ta-
4r	.	.	4r	.	4r	.	4r	.	4d/	-te
=25	=25	=25	=25	=25	=25	=25	=25	=25	=25	=25
!	!	!	!	!	!	!	!	!	!	!
2r	.	.	2rB	.	8r	.	8r	.	8r	.
!	!	!	!	!	!	!LO:DY:t=pia	!	!	!	!
!	!	!	!	!	!	!LO:DY:a	!	!LO:DY:a	!	!
.	.	.	.	.	(16cc\LL	p	(16ee\LL	p	16ee\LL	can-
.	.	.	.	.	16a\JJ)	.	16cc\JJ)	.	16cc\JJ	.
.	.	.	.	.	(16b/LL	.	(16dd\LL	.	16dd\LL	-ta-
.	.	.	.	.	16g/JJ)	.	16b\JJ)	.	16b\JJ	.
.	.	.	.	.	16a/LL	.	(16cc\LL	.	16cc\LL	.
.	.	.	.	.	16f#X/JJ	.	16a\JJ)	.	16a\JJ	.
8r	.	.	8r	.	8g/	.	(8.g/L	.	4g/	.
8BB/L	6	.	8B/L	.	4g/	.	.	.	.	.
.	.	.	.	.	.	.	16a/Jk)	.	.	.
!	!	!	!	!LO:DY:a	!	!	!	!	!	!
8C/	6 5	.	8c/	p	.	.	4aT/	.	4aT/	.
8D/J	.	.	8d/J	.	8f#X/	.	.	.	.	.
=26	=26	=26	=26	=26	=26	=26	=26	=26	=26	=26
!	!	!	!	!	!	!LO:DY:a	!	!	!	!
!	!	!	!	!	!	!LO:DY:t=for	!	!	!	!
8GG/	.	.	8G/	.	8g/	f	8g/	.	4g/	-te
!	!	!	!	!	!LO:TUP:b	!	!	!LO:DY:t=fo	!	!
!LO:TX:a:t=problem:triola pod klamrą łukową	!	!	!LO:TX:a:t=problem:triola pod klamrą łukową	!	!LO:TX:a:t=problem:triola pod klamrą łukową	!	!LO:TX:a:t=problem:triola bez numeru i łuku	!LO:DY:a	!	!
24G\LL	.	.	24g\LL	.	24g/LL	.	24g/LL	f	.	.
!	!	!	!	!	!	!	!LO:TX:a:t=SIC:s=16f#	!	!	!
24F#X\	.	.	24f#X\	.	24f#X/	.	24f/	.	.	.
24E\JJ	.	.	24e\JJ	.	24e/JJ	.	24e/JJ	.	.	.
8D/L	.	.	8d/L	.	8d/L	.	8d/L	.	8r	.
8C#X/J	.	.	8c#X/J	.	8c#X/J	.	8c#X/J	.	8cc#X\	can-
!	!	!	!	!	!	!	!LO:LB:g=original	!	!	!
4D/	.	.	4d\	.	4d/	.	4d/	.	4dd\	-ta-
4r	.	.	4r	.	4r	.	4r	.	4d/	-te
=27	=27	=27	=27	=27	=27	=27	=27	=27	=27	=27
!LO:TX:a:t=1	!	!	!LO:TX:a:t=1	!	!	!	!	!	!	!
1r	.	.	1r	.	8r	.	8r	.	8r	.
.	.	.	.	.	(16cc\LL	.	(16ee\LL	.	16ee\LL	can-
.	.	.	.	.	16a\JJ)	.	16cc\JJ)	.	16cc\JJ	.
!	!	!	!	!	!	!	!	!	!LO:LB:g=original	!
.	.	.	.	.	(16b/LL	.	(16dd\LL	.	16dd\LL	-ta-
.	.	.	.	.	16g/JJ)	.	16b\)	.	16b\JJ	.
.	.	.	.	.	(16a/LL	.	(16cc\	.	16cc\LL	.
.	.	.	.	.	16f#X/JJ)	.	16a\JJ)	.	16a\JJ	.
!	!	!	!	!	!LO:LB:g=original	!	!	!	!	!
.	.	.	.	.	(16g/LL	.	(16b\LL	.	16b\LL	.
.	.	.	.	.	16d/)	.	16g\)	.	16g\JJ	.
.	.	.	.	.	(16cc/	.	(16ee\	.	16ee\LL	.
.	.	.	.	.	16a/JJ)	.	16cc\JJ)	.	16cc\JJ	.
.	.	.	.	.	(16b/LL	.	(16dd\LL	.	16dd\LL	.
.	.	.	.	.	16g/)	.	16b\)	.	16b\JJ	.
.	.	.	.	.	(16a/	.	(16cc\	.	16cc\LL	.
.	.	.	.	.	16f#X/JJ)	.	16a\JJ)	.	16a\JJ	.
=28	=28	=28	=28	=28	=28	=28	=28	=28	=28	=28
2r	.	.	2r	.	16g/LL	.	16b\LL	.	16b\LL	.
.	.	.	.	.	16d/	.	16g\	.	16g\JJ	.
.	.	.	.	.	16cc/	.	16ee\	.	16ee\LL	.
.	.	.	.	.	16a/JJ	.	16cc\JJ	.	16cc\JJ	.
.	.	.	.	.	16b/LL	.	16dd\LL	.	16dd\LL	.
.	.	.	.	.	16g/	.	16b\	.	16b\JJ	.
.	.	.	.	.	16a/	.	16cc\	.	16cc\LL	.
.	.	.	.	.	16f#X/JJ	.	16a\JJ	.	16a\JJ	.
!	!	!	!LO:TX:a:i:t=poco forte	!	!	!	!	!	!	!
8GG/L	.	.	8B/L	.	8.ggT\L	.	8.ggT\L	.	8.gg\L	.
8AA/	.	.	8c/	.	.	.	.	.	.	.
!	!	!	!	!	!	!	!LO:TX:a:i:t=pocco forte	!	!	!
.	.	.	.	.	32ff#X\LL	.	32ff#X\LL	.	32ff#X\LL	.
.	.	.	.	.	32ee\JJJ	.	32ee\JJJ	.	32ee\JJ	.
8BB/	.	.	8d/	.	8dd\L	.	8dd\L	.	8dd\J	.
8C/J	.	.	8e/J	.	8a\J	.	8cc\J	.	8cc\	.
!LO:LB:g=original	!	!	!	!	!	!	!	!	!	!
=29	=29	=29	=29	=29	=29	=29	=29	=29	=29	=29
4D\	6 4	.	4d\	.	4g/	.	32b/LLL	.	32b\LLL	.
.	.	.	.	.	.	.	32a/JJ	.	32a\JJ	.
.	.	.	.	.	.	.	8.g/J	.	8.g\J	.
4DD/	5 #	.	4c/	.	4f#Xt/	.	4aT/	.	4aT\	.
4GG/	.	.	4B/	.	8g/L	.	8g/L	.	4g/	-te
!	!	!	!	!	!	!	!	!LO:DY:b	!	!
.	.	.	.	.	32g/LL	.	(32g/LL	f	.	.
.	.	.	.	.	32a/	.	32a/	.	.	.
.	.	.	.	.	32b/	.	32b/	.	.	.
.	.	.	.	.	32cc/JJJ	.	32cc/JJJ)	.	.	.
8r	.	.	8r	.	16dd\LL	.	16dd\LL	.	4r	.
.	.	.	.	.	16g\	.	16g\	.	.	.
8BB/	6 5	f	8g\	.	16ff\	.	16ff\	.	.	.
.	.	.	.	.	16dd\JJ	.	16dd\JJ	.	.	.
!	!	!	!	!	!	!	!LO:LB:g=original	!	!	!
=30	=30	=30	=30	=30	=30	=30	=30	=30	=30	=30
!	!	!	!	!	!	!	!	!	!LO:LB:g=original	!
!	!	!	!	!	!	!	!	!	!LO:TX:a:t=2	!
4C/	.	.	4c/	.	8ee\L	.	8ee\L	.	0r	.
.	.	.	.	.	(32a\LL	.	(32a\LL	.	.	.
.	.	.	.	.	32b\	.	32b\	.	.	.
.	.	.	.	.	32cc\	.	32cc\	.	.	.
.	.	.	.	.	32dd\JJJ)	.	32dd\JJJ)	.	.	.
8r	.	.	8r	.	16ee\LL	.	16ee\LL	.	.	.
.	.	.	.	.	16a\	.	16a\	.	.	.
8C#X/	6 5	.	8a\	.	16gg\	.	16gg\	.	.	.
.	.	.	.	.	16ee\JJ	.	16ee\JJ	.	.	.
!	!	!	!LO:LB:g=original	!	!LO:LB:g=original	!	!	!	!	!
4D/	#	.	4d\	.	8ff#X\L	.	8ff#X\L	.	.	.
.	.	.	.	.	32dd\LL	.	(32dd\LL	.	.	.
.	.	.	.	.	32ee\	.	32ee\	.	.	.
.	.	.	.	.	32ff#X\	.	32ff#X\	.	.	.
.	.	.	.	.	32gg\JJJ	.	32gg\JJJ)	.	.	.
8r	.	.	8r	.	16aa\LL	.	16aa\LL	.	.	.
.	.	.	.	.	16dd\	.	16dd\	.	.	.
8F#X\	6 5	.	8d\	.	16aa\	.	16aa\	.	.	.
.	.	.	.	.	16cc\JJ	.	16cc\JJ	.	.	.
=31	=31	=31	=31	=31	=31	=31	=31	=31	=31	=31
!LO:TX:a:t=problem:mixed beam	!	!	!	!	!	!	!	!	!	!
8G\L	.	.	8d\L	.	16b\LL	.	16b\LL	.	.	.
.	.	.	.	.	16dd\	.	16dd\	.	.	.
8BB/	.	.	8d\	.	16g\	.	16g\	.	.	.
.	.	.	.	.	16b\JJ	.	16b\JJ	.	.	.
8C/	.	.	8c\	.	16a/LL	.	16a/LL	.	.	.
.	.	.	.	.	16cc/	.	16cc/	.	.	.
8D/J	#	.	8A\J	.	16f#X/	.	16f#X/	.	.	.
.	.	.	.	.	16a/JJ	.	16a/JJ	.	.	.
!LO:TX:a:t=problem:mixed beam	!	!	!	!	!	!	!	!	!	!
8GG/L	.	.	8B\L	.	8g/L	.	8g/L	.	.	.
16G\L	.	.	16g\L	.	16g/L	.	16g/L	.	.	.
16D\JJ	.	.	16d\JJ	.	16d/JJ	.	16d/JJ	.	.	.
16G\LL	.	.	16g\LL	.	16g/LL	.	16g/LL	.	.	.
16D\	.	.	16d\	.	16d/	.	16d/	.	.	.
16BB\	.	.	16B\	.	16B/	.	16B/	.	.	.
16D\JJ	.	.	16d\JJ	.	16d/JJ	.	16d/JJ	.	.	.
=32	=32	=32	=32	=32	=32	=32	=32	=32	=32	=32
!	!	!	!	!	!	!	!	!	!LO:N:vis=1	!
4GG/	.	.	4G/	.	4G/	.	4G/	.	2r	.
4r	.	.	4r	.	4r	.	4r	.	.	.
2r	.	.	2r	.	2ra	.	2r	.	8g\	Ca-
.	.	.	.	.	.	.	.	.	16g\	-ni-
.	.	.	.	.	.	.	.	.	16g/	-te
.	.	.	.	.	.	.	.	.	8g/	vo-
.	.	.	.	.	.	.	.	.	8g/	-ce
!	!	!	!	!	!LO:LB:g=original	!	!	!	!	!
=33	=33	=33	=33	=33	=33	=33	=33	=33	=33	=33
!	!	!LO:DY:a	!	!	!	!LO:DY:a	!	!LO:DY:a	!	!
8BB/L	6 5	f	8g`\L	.	8dd`\L	f	8ff`\L	f	8ff\	la-
8C/J	.	.	8g`\J	.	8cc`\J	.	8ee`\J	.	8ee\	-ta
4r;	.	.	4r	.	4r;	.	4r;	.	4r;	.
!LO:TX:a:t=problem:pauza półnutowa nad 2 linią	!	!	!	!	!	!	!	!	!	!
2rBB	.	.	2r;	.	2r	.	2ra	.	8g/	An-
.	.	.	.	.	.	.	.	.	16g/	-dre-
.	.	.	.	.	.	.	.	.	16g/	-a
.	.	.	.	.	.	.	.	.	8g/	jam
.	.	.	.	.	.	.	.	.	8g/	fa-
!LO:LB:g=original	!	!	!	!	!	!	!LO:LB:g=original	!	!	!
=34	=34	=34	=34	=34	=34	=34	=34	=34	=34	=34
!LO:TX:a:t=problem:mixed beam	!	!	!LO:TX:a:t=problem:mixed beam	!	!	!	!	!	!	!
8G\L	6 4	.	8g\L	.	8cc`\L	.	8ee`\L	.	8ee\	-ce-
8GG/J	5 3	.	8G/J	.	8b`\J	.	8dd`\J	.	8dd\	-ta
4r;	.	.	4r;	.	4r;	.	4r;	.	4r;	.
!	!	!LO:DY:a	!	!LO:DY:a	!	!	!	!	!	!
8E\L	6	p	8e\L	p	8g/L	.	4cc\	.	4cc\	can-
!	!	!	!	!	!	!LO:DY:a	!	!	!	!
8E\	.	.	8e\	.	8g/	p	.	.	.	.
8E\	.	.	8e\	.	8g/	.	16ee\LL	.	16ee\LL	-ta-
.	.	.	.	.	.	.	16cc\	.	16cc\JJ	.
8E\J	.	.	8e\J	.	8g/J	.	16gg\	.	16gg\LL	.
.	.	.	.	.	.	.	16ee\JJ	.	16ee\JJ	.
=35	=35	=35	=35	=35	=35	=35	=35	=35	=35	=35
!	!	!	!	!	!	!	!	!	!LO:LB:g=original	!
8E\L	.	.	8e\L	.	8g/L	.	(4dd\	.	(4dd\	.
8E\	.	.	8e\	.	8g/	.	.	.	.	.
8E\	.	.	8e\	.	8g/	.	8cc\)	.	8cc\)	-te
8E\J	.	.	8e\J	.	8g/J	.	8dd\	.	8dd\	can-
.	.	.	.	.	.	.	4qqcc/	.	4qqcc/	.
8E\L	.	.	8e\L	.	8g/L	.	2b-X\	.	2b-X\	-ta-
8E\	.	.	8e\	.	8g/	.	.	.	.	.
8E\	5	.	8c\	.	8g/	.	.	.	.	.
8E\J	6	.	8c\J	.	8g/J	.	.	.	.	.
!	!	!	!LO:LB:g=original	!	!	!	!	!	!	!
=36	=36	=36	=36	=36	=36	=36	=36	=36	=36	=36
8F\	.	.	8f\	.	8f/	.	8a/	.	4a\	-te
*	*	*	*Xtuplet	*	*	*	*tuplet	*	*	*
!	!	!	!	!	!LO:TX:a:t=problem:triola pod klamrą łukową	!	!LO:TX:a:t=problem:triola pod klamrą łukową	!	!	!
!	!	!	!LO:TX:a:t=problem:klamra łukowa bez numeru	!	!LO:TUP:b	!	!LO:TUP:b	!LO:DY:a	!	!
!LO:TX:a:t=problem:triola pod klamrą łukową	!	!	!	!	!	!	!	!LO:DY:t=for	!	!
24F\LL	.	f	(24f\LL	.	24f/LL	.	(24f/LL	f	.	.
24E\	.	.	24e\	.	24e/	.	24e/	.	.	.
24D\JJ	.	.	24d\JJ)	.	24d/JJ	.	24d/JJ)	.	.	.
8C/L	.	.	8c/L	.	8c/L	.	8c/L	.	4r	.
8BB-X/J	.	.	8B-X/J	.	8B-X/J	.	8B-X/J	.	.	.
4AA/	.	.	4A/	.	4A/	.	4A/	.	8r	.
.	.	.	.	.	.	.	.	.	8f/	An-
4r	.	.	4r	.	4r	.	4r	.	8a/	-dre-
.	.	.	.	.	.	.	.	.	8cc\	-a
=37	=37	=37	=37	=37	=37	=37	=37	=37	=37	=37
8r	.	.	8r	.	8r	.	8r	.	8.ff\L	can-
!	!	!	!	!	!	!	!	!LO:DY:a	!	!
8F\L	.	.	8f\L	.	8cc\L	.	8aa\L	p	.	.
.	.	.	.	.	.	.	.	.	16gg\K	-ta-
8F\	.	.	8f\	.	8cc\	.	8aa\	.	8aa\J	.
!	!	!	!	!	!	!	!	!	!LO:N:vis=4	!
.	.	.	.	.	.	.	.	.	8qqgg/	.
8F\J	.	.	8f\J	.	8cc\J	.	8aa\J	.	8ff\	.
.	.	.	.	.	.	.	.	.	4qqdd/	.
8F#X\L	.	.	8f#X\L	.	8cc\L	.	8aa\L	.	2cc\	.
8F#\	.	.	8f#\	.	8cc\	.	8aa\	.	.	.
8F#\	.	.	8f#\	.	8cc\	.	8aa\	.	.	.
8F#\J	.	.	8f#\J	.	8cc\J	.	8aa\J	.	.	.
=38	=38	=38	=38	=38	=38	=38	=38	=38	=38	=38
!	!	!	!	!	!	!	!	!LO:DY:a	!	!
8G\	.	.	8g\	.	8b\	.	8dd\	f	4b\	-te
!	!	!	!LO:TX:a:t=problem:klamra łukowa bez numeru	!	!LO:TX:a:t=problem:triola pod klamrą łukową	!	!LO:TX:a:t=problem:triola pod klamrą łukową	!	!	!
!LO:TX:a:t=problem:triola pod klamrą łukową	!	!	!	!	!LO:TUP:b	!	!	!	!	!
24G\LL	.	.	(24g\LL	.	24g/LL	.	24g/LL	.	.	.
24F#X\	.	.	24f#X\	.	24f#X/	.	24f#X/	.	.	.
24E\JJ	.	.	24e\JJ)	.	24e/JJ	.	24e/JJ	.	.	.
!LO:LB:g=original	!	!	!	!	!LO:LB:g=original	!	!	!	!	!
8D/L	.	.	8d/L	.	8d/L	.	8d/L	.	4r	.
8C/J	.	.	8c/J	.	8c/J	.	8c/J	.	.	.
4BB/	.	.	4B/	.	4B/	.	4B/	.	8r	.
.	.	.	.	.	.	.	.	.	8dd\	can-
8r	.	.	8r	.	8r	.	8r	.	8dd\	-ta-
!	!	!	!	!	!	!LO:DY:a	!	!	!	!
8G\	.	.	8g\	.	8b\	p	8dd\	.	8dd\	-te
!	!	!	!	!	!	!	!	!	!LO:LB:g=original	!
=39	=39	=39	=39	=39	=39	=39	=39	=39	=39	=39
8G\L	.	.	8g\L	.	8cc\L	.	8ee\L	.	(32ee\LLL	can-
.	.	.	.	.	.	.	.	.	32dd\JJ	.
.	.	.	.	.	.	.	.	.	8.cc\J)	-ta-
8G\	.	.	8g\	.	8cc\	.	8ee\J	.	.	.
!	!	!	!	!	!	!	!LO:LB:g=original	!	!	!
8G\	.	.	8g\	.	8cc\	.	8ee\L	.	32gg\LLL	.
.	.	.	.	.	.	.	.	.	32ff\JJ	.
.	.	.	.	.	.	.	.	.	8.ee\J	.
8G\J	.	.	8g\J	.	8cc\J	.	8ee\J	.	.	.
!	!	!	!LO:TX:a:t=problem:mixed beam	!	!	!	!	!	!	!
8G\L	.	.	8g\L	.	4b\	.	4dd\	.	16dd\LL	.
.	.	.	.	.	.	.	.	.	16g\	.
8G\	.	.	8g\	.	.	.	.	.	16b\	.
.	.	.	.	.	.	.	.	.	16dd\JJ	.
!	!	!LO:DY:a	!	!	!	!	!	!	!	!
8G\	.	f	8g\	.	8r	.	8r	.	4gg\	.
!	!	!	!	!	!	!LO:DY:a	!	!LO:DY:a	!	!
8G\J	.	.	8G/J	.	8G/	f	8G/	f	.	.
=40	=40	=40	=40	=40	=40	=40	=40	=40	=40	=40
!	!	!LO:DY:a	!LO:TX:a:t=problem:mixed beam	!	!	!	!	!	!	!
8G\L	.	p	8G/L	.	4G/	.	4G`/	.	8r	.
8G\	.	.	8g\	.	.	.	.	.	8ff\	.
!	!	!	!	!	!	!LO:DY:a	!	!LO:DY:a	!	!
8G\	7	.	8g\	.	8.ddT\L	p	8.ffT\L	p	8.ff\L	.
8G\J	.	.	8g\J	.	.	.	.	.	.	.
.	.	.	.	.	32cc\LL	.	32ee\LL	.	32ee\LL	.
.	.	.	.	.	32b\JJJ	.	32dd\JJJ	.	32dd\JJJ	.
!	!	!	!LO:LB:g=original	!	!	!	!	!	!	!
!	!	!	!LO:TX:a:t=problem:mixed beam	!	!	!	!	!	!	!
8G\L	6 4	.	8g\L	.	4cc`\	.	4ee`\	.	16ee\LL	.
.	.	.	.	.	.	.	.	.	16gg\	.
8G\	.	.	8g\	.	.	.	.	.	16ee\	.
.	.	.	.	.	.	.	.	.	16cc\JJ	.
!	!	!LO:DY:a	!	!	!	!	!	!	!	!
8G\	.	f	8g\	.	8r	.	8r	.	4g/	.
!	!	!	!	!	!	!	!	!LO:DY:a	!	!
8G\J	.	.	8G/J	.	8G/	.	8G/	f	.	.
=41	=41	=41	=41	=41	=41	=41	=41	=41	=41	=41
!	!	!	!LO:TX:a:t=problem:mixed beam	!LO:DY:a	!	!	!LO:TX:a:t=problem:brak taktu nr 41	!	!	!
8G\L	.	.	8G/L	p	4G/	.	1ryy	.	8r	.
8G\	.	.	8g\	.	.	.	.	.	8ee\	.
8G\	.	.	8g\	.	8.ccT\L	.	.	.	8.eet\L	.
8G\J	.	.	8g\J	.	.	.	.	.	.	.
.	.	.	.	.	32b\LL	.	.	.	32dd\LL	.
.	.	.	.	.	32a\JJJ	.	.	.	32cc\JJJ	.
!	!	!	!LO:TX:a:t=problem:mixed beam	!	!	!	!	!	!	!
8G\L	5 3	.	8g\L	.	4b\	.	.	.	16dd\LL	.
.	.	.	.	.	.	.	.	.	16g\	.
8G\	.	.	8g\	.	.	.	.	.	16b\	.
.	.	.	.	.	.	.	.	.	16dd\JJ	.
8G\	.	.	8g\	.	8r	.	.	.	4gg\	.
8G\J	.	.	8G/J	.	8G/	.	.	.	.	.
=42	=42	=42	=42	=42	=42	=42	=42	=42	=42	=42
!	!	!	!LO:TX:a:t=problem:mixed beam	!	!	!	!	!	!	!
8G\L	.	.	8G/L	.	4G/	.	4G/	.	8r	.
!	!	!	!	!	!	!	!	!	!LO:LB:g=original	!
8G\	.	.	8g\	.	.	.	.	.	8ff\	.
!	!	!	!	!	!	!LO:DY:a	!	!LO:DY:a	!	!
8G\	.	.	8g\	.	8.dd\L	p	(8.ff\L	p	8.ff\L	.
8G\J	.	.	8g\J	.	.	.	.	.	.	.
.	.	.	.	.	32cc\LL	.	32ee\LL	.	32ee\LL	.
.	.	.	.	.	32b\JJJ	.	32dd\JJJ)	.	32dd\JJJ	.
8C/L	6 4	.	8c/L	.	8cc`\L	.	8ee`\L	.	16ee\LL	.
.	.	.	.	.	.	.	.	.	16cc\	.
8C/	.	.	8c/	.	8ee`\	.	8gg`\	.	16gg\	.
.	.	.	.	.	.	.	.	.	16ee\JJ	.
8C/	.	.	8c/	.	8ff`\	.	8aa`\	.	16aa\LL	.
.	.	.	.	.	.	.	.	.	16ff\	.
8C/J	.	.	8c/J	.	8dd`\J	.	8ff`\J	.	16ee\	.
.	.	.	.	.	.	.	.	.	16dd\JJ	.
!LO:PB:g=original	!	!	!	!	!	!	!	!	!	!
=43	=43	=43	=43	=43	=43	=43	=43	=43	=43	=43
8C/L	5 3	.	8c/L	.	8ee\L	.	8gg\L	.	16gg\LL	.
.	.	.	.	.	.	.	.	.	16ee\	.
8C/	.	.	8c/	.	8cc\	.	8ee\	.	16dd\	.
.	.	.	.	.	.	.	.	.	16cc\JJ	.
8C/	8 2	.	8c/	.	8dd\	.	8ff\	.	16ff\LL	.
.	.	.	.	.	.	.	.	.	16dd\	.
8C/J	.	.	8c/J	.	8b\J	.	8dd\J	.	16cc\	.
.	.	.	.	.	.	.	.	.	16b\JJ	.
!	!	!	!	!	!LO:LB:g=original	!	!	!	!	!
8C/L	8	.	8c/L	.	8cc\L	.	8ee\L	.	16ee\LL	.
.	.	.	.	.	.	.	.	.	16cc\	.
8C/	.	.	8c/	.	8ee\J	.	8gg\	.	16gg\	.
.	.	.	.	.	.	.	.	.	16ee\JJ	.
8C/	6 4	.	8c/	.	8ff\L	.	8aa\	.	16aa\LL	.
.	.	.	.	.	.	.	.	.	16ff\	.
8C/J	.	.	8c/J	.	8dd\J	.	8ff\J	.	16ee\	.
.	.	.	.	.	.	.	.	.	16dd\JJ	.
=44	=44	=44	=44	=44	=44	=44	=44	=44	=44	=44
8C/L	5 3	.	8c/L	.	8ee`\L	.	8gg\L	.	16gg\LL	.
.	.	.	.	.	.	.	.	.	16ee\	.
8C/	.	.	8c/	.	8cc\	.	8ee\	.	16dd\	.
.	.	.	.	.	.	.	.	.	16cc\JJ	.
8C/	4 2	.	8c/	.	8dd\	.	8ff\	.	16ff\LL	.
.	.	.	.	.	.	.	.	.	16dd\	.
8C/J	.	.	8c/J	.	8b\J	.	8dd\J	.	16cc\	.
.	.	.	.	.	.	.	.	.	16b\JJ	.
!	!	!LO:DY:a	!	!	!	!	!	!	!	!
8C/	.	f	8c/	.	8cc\	.	8ee\	.	4cc\	-te
!LO:TX:a:t=problem:triola pod klamrą łukową	!	!	!LO:TX:a:t=problem:klamra łukowa bez numeru	!	!LO:TX:a:t=problem:triola pod klamrą łukową	!	!LO:TX:a:t=problem:triola pod klamrą łukową	!	!	!
24c\LL	.	.	(24cc\LL	.	24cc\LL	.	24cc\LL	.	.	.
24B\	.	.	24b\	.	24b\	.	24b\	.	.	.
24A\JJ	.	.	24a\JJ)	.	24a\JJ	.	24a\JJ	.	.	.
8G\L	.	.	8g\L	.	8g/L	.	8g/L	.	8r	.
8F#X\J	.	.	8f#X\J	.	8f#X/J	.	8f#X/J	.	8ff#X\	An-
!	!	!	!	!	!	!	!	!	!LO:PB:g=original	!
=45	=45	=45	=45	=45	=45	=45	=45	=45	=45	=45
4G\	.	.	4g\	.	4g/	.	4g/	.	4gg\	-dre-
4r	.	.	4r	.	4r	.	4r	.	4g/	-a
2rBB	.	.	2rB	.	8r	.	8r	.	8r	.
!	!	!	!	!	!	!LO:DY:a	!LO:LB:g=original	!LO:DY:a	!	!
.	.	.	.	.	(16ff\LL	p	(16aa\LL	p	16ff\LL	can-
.	.	.	.	.	16dd\JJ)	.	16ff\JJ)	.	16dd\JJ	.
!	!	!	!	!	!	!	!LO:TX:b:i:t=poco forte	!	!	!
.	.	.	.	.	(16ee\LL	.	(16gg\LL	.	16ee\LL	-ta-
.	.	.	.	.	16cc\)	.	16ee\)	.	16cc\JJ	.
.	.	.	.	.	(16dd\	.	(16ff\	.	16dd\LL	.
.	.	.	.	.	16b\JJ)	.	16dd\JJ)	.	16b\JJ	.
!	!	!	!LO:PB:g=original	!	!	!	!	!	!	!
=46	=46	=46	=46	=46	=46	=46	=46	=46	=46	=46
8r	.	.	8r	.	8cc\	.	(8.cc\L	.	8.cc\L	.
8E\L	6	.	8e\L	.	4cc\	.	.	.	.	.
.	.	.	.	.	.	.	16dd\Jk)	.	16dd\Jk	.
8F\	6 5	.	8f\	.	.	.	4ddT\	.	4ddT\	.
8G\J	.	.	8g\J	.	8b\	.	.	.	.	.
!	!	!LO:DY:a	!	!	!	!	!LO:N:vis=4	!	!	!
8C/	.	f	8c/	.	8cc\	.	8cc\	.	4cc\	-te
*	*	*	*	*	*Xtuplet	*	*	*	*	*
!LO:TX:a:t=problem:triola pod klamrą łukową	!	!	!LO:TX:a:t=problem:klamra łukowa bez numeru	!	!LO:TX:a:t=problem:klamra łukowa bez numeru	!	!LO:TX:a:t=problem:triola pod klamrą łukową	!LO:DY:a	!	!
24c\LL	.	.	(24cc\LL	.	(24cc\LL	.	24cc\LL	f	.	.
24B\	.	.	24b\	.	24b\	.	24b\	.	.	.
24A\JJ	.	.	24a\JJ)	.	24a\JJ)	.	24a\JJ	.	.	.
8G\L	.	.	8g\L	.	8g/L	.	8g/L	.	8r	.
8F#X\J	.	.	8f#X\J	.	8f#X/J	.	8f#X/J	.	8ff#X\	An-
=47	=47	=47	=47	=47	=47	=47	=47	=47	=47	=47
4G\	.	.	4g\	.	4g/	.	4g/	.	4gg\	-dre-
4r	.	.	4r	.	4r	.	4r	.	4g/	-a
2r	.	.	2r	.	8r	.	8r	.	8r	.
!	!	!	!	!	!LO:LB:g=original	!	!	!	!	!
.	.	.	.	.	(16ff\LL	.	(16aa\LL	.	16ff\LL	can-
.	.	.	.	.	16dd\JJ)	.	16ff\JJ)	.	16dd\JJ	.
.	.	.	.	.	(16ee\LL	.	(16gg\LL	.	16ee\LL	-ta-
.	.	.	.	.	16cc\JJ)	.	16ee\)	.	16cc\JJ	.
.	.	.	.	.	(16dd\LL	.	(16ff\	.	16dd\LL	.
.	.	.	.	.	16b\JJ)	.	16dd\JJ)	.	16b\JJ	.
=48	=48	=48	=48	=48	=48	=48	=48	=48	=48	=48
!LO:TX:a:t=1	!	!	!LO:TX:a:t=1	!	!	!	!	!	!	!
1r	.	.	1r	.	(16cc\LL	.	(16ee\LL	.	16cc\LL	.
.	.	.	.	.	16g\)	.	16cc\)	.	16g\JJ	.
.	.	.	.	.	(16ff\	.	(16aa\	.	16ff\LL	.
.	.	.	.	.	16dd\JJ)	.	16ff\JJ)	.	16dd\JJ	.
.	.	.	.	.	(16ee\LL	.	(16gg\LL	.	16ee\LL	.
.	.	.	.	.	16cc\)	.	16ee\)	.	16cc\JJ	.
!	!	!	!	!	!	!	!	!	!LO:LB:g=original	!
.	.	.	.	.	(16dd\	.	(16ff\	.	16dd\LL	.
.	.	.	.	.	16b\JJ)	.	16dd\JJ)	.	16b\JJ	.
.	.	.	.	.	(16cc\LL	.	16ee\LL	.	16cc\LL	.
.	.	.	.	.	16g\)	.	16cc\	.	16g\JJ	.
.	.	.	.	.	(16ff\	.	16aa\	.	16ff\LL	.
.	.	.	.	.	16dd\JJ)	.	16ff\JJ	.	16dd\JJ	.
.	.	.	.	.	(16ee\LL	.	16gg\LL	.	16ee\LL	.
.	.	.	.	.	16cc\)	.	16ee\	.	16cc\JJ	.
.	.	.	.	.	(16dd\	.	16ff\	.	16dd\LL	.
.	.	.	.	.	16b\JJ)	.	16dd\JJ	.	16b\JJ	.
!	!	!	!	!	!	!	!LO:LB:g=original	!	!	!
=49	=49	=49	=49	=49	=49	=49	=49	=49	=49	=49
!	!	!	!LO:TX:a:i:t=poco forte	!	!	!	!	!	!	!
4E\	6	.	4c\	.	8.ggT\L	.	8.ggT\L	.	8.ggT\L	.
.	.	.	.	.	32ff\LL	.	32ff\LL	.	32ff\LL	.
.	.	.	.	.	32gg\JJJ	.	32gg\JJJ	.	32gg\JJ	.
4F\	.	.	4c\	.	8aa\L	.	8aa\L	.	8aa\J	.
.	.	.	.	.	8cc\J	.	8cc\J	.	8cc\	.
!LO:LB:g=original	!	!	!	!	!	!	!	!	!	!
8r	.	.	8r	.	4g/	.	4g/	.	4g/	-te
!LO:TX:a:t=problem:mixed beam	!	!	!LO:TX:a:t=problem:mixed beam	!	!	!	!	!	!	!
8G\L	.	.	8g\L	.	.	.	.	.	.	.
8G\	.	.	8g\	.	4bt\	.	4ddT\	.	4ddT\	can-
8GG/J	.	.	8G/J	.	.	.	.	.	.	.
=50	=50	=50	=50	=50	=50	=50	=50	=50	=50	=50
4E\	6 5-	.	4e\	.	8.gg\L	.	8.gg\L	.	4ggT\	-ta-
.	.	.	.	.	32ff\LL	.	32ff\LL	.	.	.
.	.	.	.	.	32gg\JJJ	.	32gg\JJJ	.	.	.
4F\	.	.	4f\	.	8aa\L	.	8aa\L	.	8aa\	.
.	.	.	.	.	8cc\J	.	8cc\J	.	8cc\	.
8r	.	.	8r	.	4g/	.	4g/	.	4g/	.
!LO:TX:a:t=problem:mixed beam	!	!	!LO:TX:a:t=problem:mixed beam	!	!	!	!	!	!	!
8G\L	.	.	8g\L	.	.	.	.	.	.	.
8G\	.	.	8g\	.	4bt\	.	4ddT\	.	4ddT\	.
8GG/J	.	.	8G/J	.	.	.	.	.	.	.
=51	=51	=51	=51	=51	=51	=51	=51	=51	=51	=51
4C/	.	.	4e\	.	8cc\L	.	8cc\L	.	4cc\	-te
.	.	.	.	.	(32cc\LL	.	(32cc\LL	.	.	.
.	.	.	.	.	32dd\	.	32dd\	.	.	.
.	.	.	.	.	32ee\	.	32ee\	.	.	.
.	.	.	.	.	32ff\JJJ)	.	32ff\JJJ)	.	.	.
!	!	!	!	!	!LO:LB:g=original	!	!	!	!	!
8r	.	.	8r	.	(16gg\LL	.	(16gg\LL	.	4r	.
.	.	.	.	.	16cc\	.	16ee\	.	.	.
8E\	6 5-	.	8e\	.	16bb-X\	.	16bb-X\	.	.	.
.	.	.	.	.	16gg\JJ)	.	16gg\JJ)	.	.	.
4F\	.	.	4f\	.	8aa\L	.	8aa\L	.	2r	.
.	.	.	.	.	(32dd\LL	.	32dd\LL	.	.	.
!	!	!	!	!	!	!	!LO:TX:a:t=bis	!	!	!
.	.	.	.	.	32ee\	.	32ee\	.	.	.
.	.	.	.	.	32ff\	.	32ff\	.	.	.
.	.	.	.	.	32gg\JJJ	.	32gg\JJJ	.	.	.
8r	.	.	8r	.	16aa\LL)	.	16aa\LL	.	.	.
.	.	.	.	.	16dd\	.	16dd\	.	.	.
8F#X\	6 5	.	8d\	.	16ccc\	.	16ccc\	.	.	.
.	.	.	.	.	16aa\JJ	.	16aa\JJ	.	.	.
=52	=52	=52	=52	=52	=52	=52	=52	=52	=52	=52
!	!	!	!	!	!	!	!	!	!LO:TX:a:t=3	!
4G\	n	.	4g\	.	8bb\L	.	8bb\L	.	0r	.
.	.	.	.	.	(32gg\LL	.	(32gg\LL	.	.	.
.	.	.	.	.	32aa\	.	32aa\	.	.	.
.	.	.	.	.	32bb\	.	32bb\	.	.	.
.	.	.	.	.	32ccc\JJJ)	.	32ccc\JJJ)	.	.	.
8r	.	.	8r	.	16ddd\LL	.	16ddd\LL	.	.	.
.	.	.	.	.	16gg\	.	16gg\	.	.	.
!	!	!	!LO:LB:g=original	!	!	!	!	!	!	!
8B\	6 5	.	8g\	.	16ddd\	.	16ddd\	.	.	.
.	.	.	.	.	16ff\JJ	.	16ff\JJ	.	.	.
!LO:TX:a:t=problem:mixed beam	!	!	!	!	!	!	!	!	!	!
8c\L	.	.	8g\L	.	16ee\LL	.	16ee\LL	.	.	.
.	.	.	.	.	16gg\	.	16gg\	.	.	.
8E\	.	.	8g\	.	16cc\	.	16cc\	.	.	.
.	.	.	.	.	16ee\JJ	.	16ee\JJ	.	.	.
!	!	!	!	!	!	!	!LO:LB:g=original	!	!	!
8F/	6	.	8f\	.	16a/LL	.	16a\LL	.	.	.
.	.	.	.	.	16cc/	.	16cc\	.	.	.
8G/J	.	.	8d\J	.	16b/	.	16b\	.	.	.
.	.	.	.	.	16dd/JJ	.	16dd\JJ	.	.	.
=53	=53	=53	=53	=53	=53	=53	=53	=53	=53	=53
!	!	!	!	!	!LO:TX:a:t=problem:powtórzenie tt. 51-52 oznaczone znakami repetycji	!	!LO:TX:a:t=problem:powtórzenie tt. 51-52 oznaczone znakami repetycji adnotacja "bis"	!	!	!
4C/	.	.	4e\	.	8cc\Lyy	.	8cc\Lyy	.	.	.
.	.	.	.	.	(32cc\LLyy	.	(32cc\LLyy	.	.	.
.	.	.	.	.	32dd\yy	.	32dd\yy	.	.	.
.	.	.	.	.	32ee\yy	.	32ee\yy	.	.	.
.	.	.	.	.	32ff\JJJ)yy	.	32ff\JJJ)yy	.	.	.
!	!	!	!	!	!LO:LB:g=original	!	!	!	!	!
8r	.	.	8r	.	(16gg\LLyy	.	(16gg\LLyy	.	.	.
.	.	.	.	.	16cc\yy	.	16ee\yy	.	.	.
8E\	.	.	8c/	.	16bb-X\yy	.	16bb-X\yy	.	.	.
.	.	.	.	.	16gg\JJ)yy	.	16gg\JJ)yy	.	.	.
!LO:TX:b:i:t=poco forte	!	!	!	!	!	!	!	!	!	!
4F\	.	.	4f\	.	8aa\Lyy	.	8aa\Lyy	.	.	.
.	.	.	.	.	32dd\LLyy	.	32dd\LLyy	.	.	.
.	.	.	.	.	32ee\yy	.	32ee\yy	.	.	.
.	.	.	.	.	32ff\yy	.	32ff\yy	.	.	.
.	.	.	.	.	32gg\JJJyy	.	32gg\JJJyy	.	.	.
8r	.	.	8r	.	16aa\LLyy	.	16aa\LLyy	.	.	.
.	.	.	.	.	16dd\yy	.	16dd\yy	.	.	.
8F#X\	.	.	8d\	.	16ccc\yy	.	16ccc\yy	.	.	.
.	.	.	.	.	16aa\JJyy	.	16aa\JJyy	.	.	.
=54	=54	=54	=54	=54	=54	=54	=54	=54	=54	=54
4G\	.	.	4g\	.	8bb\Lyy	.	8bb\Lyy	.	1r	.
.	.	.	.	.	(32gg\LLyy	.	(32gg\LLyy	.	.	.
.	.	.	.	.	32aa\yy	.	32aa\yy	.	.	.
.	.	.	.	.	32bb\yy	.	32bb\yy	.	.	.
.	.	.	.	.	32ccc\JJJ)yy	.	32ccc\JJJ)yy	.	.	.
8r	.	.	8r	.	16ddd\LLyy	.	16ddd\LLyy	.	.	.
.	.	.	.	.	16gg\yy	.	16gg\yy	.	.	.
8B\	.	.	8g\	.	16ddd\yy	.	16ddd\yy	.	.	.
.	.	.	.	.	16ff\JJyy	.	16ff\JJyy	.	.	.
!LO:LB:g=original	!	!	!	!	!	!	!	!	!	!
8c\L	.	.	8g\L	.	16ee\LLyy	.	16ee\LLyy	.	.	.
.	.	.	.	.	16gg\yy	.	16gg\yy	.	.	.
8E\	.	.	8g\	.	16cc\yy	.	16cc\yy	.	.	.
.	.	.	.	.	16ee\JJyy	.	16ee\JJyy	.	.	.
!	!	!	!	!	!	!	!LO:LB:g=original	!	!	!
8F\	.	.	8f\	.	16a/LLyy	.	16a\LLyy	.	.	.
.	.	.	.	.	16cc/yy	.	16cc\yy	.	.	.
8G\J	.	.	8d\J	.	16b/yy	.	16b\yy	.	.	.
.	.	.	.	.	16dd/JJyy	.	16dd\JJyy	.	.	.
!	!	!	!	!	!	!	!	!	!LO:LB:g=original	!
=55	=55	=55	=55	=55	=55	=55	=55	=55	=55	=55
!LO:TX:a:t=problem:mixed beam	!	!	!	!	!	!	!	!	!	!
8C/L	.	.	8e\L	.	8cc\L	.	8cc\L	.	2r	.
16c\L	.	.	16cc\L	.	16cc\L	.	16cc\L	.	.	.
16G\JJ	.	.	16g\JJ	.	16g\JJ	.	16g\JJ	.	.	.
16c\LL	.	.	16cc\LL	.	16cc\LL	.	16cc\LL	.	.	.
16G\	.	.	16g\	.	16g\	.	16g\	.	.	.
16E\	.	.	16e\	.	16e\	.	16e\	.	.	.
16G\JJ	.	.	16g\JJ	.	16g\JJ	.	16g\JJ	.	.	.
!LO:N:vis=4	!	!	!	!	!	!	!	!	!	!
2C;</	.	.	4c;</	.	4c;/	.	4c;/	.	4r	.
.	.	.	4r	.	8r	.	8r	.	8r	.
!	!	!	!	!	!	!	!	!LO:DY:a	!	!
.	.	.	.	.	8cc\	.	8ee\	p	8ee\	Et
!	!	!	!	!	!LO:LB:g=original	!	!	!	!	!
=56	=56	=56	=56	=56	=56	=56	=56	=56	=56	=56
!	!	!LO:DY:a	!	!LO:DY:a	!	!	!	!	!	!
8G\L	.	p	8g\L	p	(8.b\L	.	(8.dd\L	.	8.dd\	lau-
8G\	.	.	8g\	.	.	.	.	.	.	.
.	.	.	.	.	16dd\Jk)	.	16ff\Jk)	.	16ff\	-re-
8G\	.	.	8g\	.	8cc\	.	8ee\	.	4ee\	-as
8G\J	.	.	8g\J	.	4ee\	.	4gg\	.	.	.
8G\L	6 4	.	8g\L	.	.	.	.	.	4r	.
8G\	.	.	8g\	.	4ee\	.	4ccc\	.	.	.
8G\	.	.	8g\	.	.	.	.	.	8gg\	a-
8G\J	.	.	8g\J	.	8cc\	.	8ee\	.	8cc\	-da-
=57	=57	=57	=57	=57	=57	=57	=57	=57	=57	=57
8G\L	5 3	.	8g\L	.	(8.b\L	.	(8.dd\L	.	(8.dd\L	-pta-
8G\	.	.	8g\	.	.	.	.	.	.	.
.	.	.	.	.	32cc\LL	.	32ee\LL	.	32ee\LL	.
.	.	.	.	.	32dd\JJJ)	.	32ff\JJJ)	.	32ff\JJJ)	.
8G\	6 4	.	8g\	.	8cc\	.	8ee\	.	4ee\	-te
8G\J	.	.	8g\J	.	4ee\	.	4gg\	.	.	.
!	!	!	!LO:LB:g=original	!	!	!	!	!	!	!
8G\L	.	.	8g\L	.	.	.	.	.	4r	.
8G\	.	.	8g\	.	4ee\	.	4ccc\	.	.	.
8G\	.	.	8g\	.	.	.	.	.	8gg\	a-
8G\J	.	.	8g\J	.	8cc\	.	8ee\	.	8cc\	-da-
=58	=58	=58	=58	=58	=58	=58	=58	=58	=58	=58
4G\	5 3	.	4g\	.	(8.b\L	.	(8.dd\L	.	(8.dd\L	-pta-
.	.	.	.	.	32cc\LL	.	32ee\LL	.	32ee\LL	.
.	.	.	.	.	32dd\JJJ)	.	32ff\JJJ)	.	32ff\JJJ)	.
!	!	!	!	!	!	!	!LO:TX:a:t=problem:mixed beam	!	!	!
4C/	.	.	4c/	.	8cc\L	.	8ee\L	.	8ee\	-te
.	.	.	.	.	8g\J	.	8g/J	.	8g/	et
!	!	!	!	!	!LO:TX:a:t=problem:mixed beam	!	!LO:TX:a:t=problem:mixed beam	!	!	!
4F\	.	.	4f\	.	8.a/L	.	8.a\L	.	8.a\	lau-
.	.	.	.	.	16aa\Jk	.	16aa\Jk	.	16aa\	-re-
!	!	!	!	!	!	!	!	!	!LO:LB:g=original	!
4G\	.	.	4g\	.	(16gg\LL	.	(16gg\LL	.	16gg\LL	-as
.	.	.	.	.	16ff\)	.	16ff\)	.	16ff\JJ	.
.	.	.	.	.	(16ee\	.	(16ee\	.	16ee\LL	a-
!	!	!	!	!	!	!	!	!	!LO:TX:a:t=SIC:l:s=-da-	!
.	.	.	.	.	16dd\JJ)	.	16dd\JJ)	.	16dd\JJ	.
=59	=59	=59	=59	=59	=59	=59	=59	=59	=59	=59
!	!	!	!	!	!	!	!LO:PB:g=original	!	!	!
!	!	!	!	!	!	!	!LO:TX:a:t=problem:niejednoznaczny zapis łuku	!	!	!
4A\	.	.	4a\	.	16cc\LL	.	(16cc\LL	.	(16cc\LL	-pta-
.	.	.	.	.	16b\J	.	16b\J	.	16b\JJ)	.
.	.	.	.	.	8cc\J	.	8cc\J)	.	8cc\	-te
4E\	6	.	4e\	.	8r	.	8r	.	8r	.
!	!	!	!	!	!LO:TX:a:i:t=poco forte	!	!LO:TX:a:i:t=poco forte	!	!	!
.	.	.	.	.	8g/	.	8g/	.	8g/	tri-
!	!	!	!	!	!LO:TX:a:t=problem:mixed beam	!	!LO:TX:a:t=problem:mixed beam	!	!	!
4F\	.	.	4f\	.	8.a/L	.	8.a/L	.	8.a\	-pu-
.	.	.	.	.	16aa\Jk	.	16aa\Jk	.	16aa\	-di-
4G\	.	.	4g\	.	(16gg\LL	.	16gg\LL	.	16gg\LL	-a
.	.	.	.	.	16ff\)	.	16ff\	.	16ff\JJ	.
.	.	.	.	.	(16ee\	.	16ee\	.	16ee\LL	can-
.	.	.	.	.	16dd\JJ)	.	16dd\JJ	.	16dd\JJ	.
=60	=60	=60	=60	=60	=60	=60	=60	=60	=60	=60
!	!	!	!LO:TX:a:t=SIC:s=4c:zgodnie z t. 62	!	!	!	!	!	!	!
4C/	.	.	4B/	.	8ee\L	.	8ee\L	.	16ee\LL	-ta-
.	.	.	.	.	.	.	.	.	16dd\JJ	.
.	.	.	.	.	(32cc\LL	.	(32cc\LL	.	8cc\	-te
.	.	.	.	.	32dd\	.	32dd\	.	.	.
.	.	.	.	.	32ee\	.	32ee\	.	.	.
.	.	.	.	.	32ff\JJJ)	.	32ff\JJJ)	.	.	.
4B-X\	2	.	4e\	.	8gg\L	.	8gg\L	.	8r	.
!	!	!	!	!	!LO:TX:a:t=problem:custos ff	!	!	!	!	!
.	.	.	.	.	8cc\J	.	8cc\J	.	8cc\	An-
!	!	!	!	!	!LO:LB:g=original	!	!	!	!	!
4A\	6	.	4c/	.	8ff\L	.	8ff\L	.	4.ff\	-dre-
.	.	.	.	.	(32ff\LL	.	32ff\LL	.	.	.
.	.	.	.	.	32gg\	.	32gg\	.	.	.
.	.	.	.	.	32aa\	.	32aa\	.	.	.
.	.	.	.	.	32bb-X\JJJ)	.	32bb-X\JJJ	.	.	.
!	!	!	!	!	!	!	!LO:TX:a:t=problem:mixed beam	!	!	!
4F\	.	.	4a\	.	8ccc\L	.	8ccc\L	.	.	.
.	.	.	.	.	8cc\J	.	8cc/J	.	8cc\	-a
!LO:LB:g=original	!	!	!	!	!	!	!	!	!	!
=61	=61	=61	=61	=61	=61	=61	=61	=61	=61	=61
4E\	6	.	4g\	.	8gg\L	.	8gg\L	.	4.gg\	ſan-
.	.	.	.	.	(32cc\LL	.	(32cc\LL	.	.	.
.	.	.	.	.	32dd\	.	32dd\	.	.	.
.	.	.	.	.	32ee\	.	32ee\	.	.	.
.	.	.	.	.	32ff\JJJ)	.	32ff\JJJ)	.	.	.
!	!	!	!	!	!LO:TX:a:t=problem:mixed beam	!	!LO:TX:a:t=problem:mixed beam	!	!	!
4C/	.	.	4e\	.	8gg\L	.	8gg\L	.	.	.
.	.	.	.	.	8g/J	.	8b-X/J	.	8b-X\	-cto
.	.	.	.	.	4qqg/	.	4qqb-/	.	4qqb-/	.
4F\	.	.	4f\	.	2f/	.	2a/	.	2a\	da-
4BBn/	7 5	.	4Bn/	.	.	.	.	.	.	.
=62	=62	=62	=62	=62	=62	=62	=62	=62	=62	=62
!	!	!	!	!	!LO:TX:a:t=problem:mixed beam	!	!	!	!	!
4C/	.	.	4c/	.	8e/L	.	8g\L	.	4g/	-te
.	.	.	.	.	(32cc\LL	.	(32cc\LL	.	.	.
.	.	.	.	.	32dd\	.	32dd\	.	.	.
.	.	.	.	.	32ee\	.	32ee\	.	.	.
.	.	.	.	.	32ff\JJJ)	.	32ff\JJJ)	.	.	.
!	!	!	!	!	!	!	!	!	!LO:LB:g=original	!
4B-X\	2	.	4e\	.	8gg\L	.	8gg\L	.	8r	.
.	.	.	.	.	8cc\J	.	8cc\J	.	8cc\	An-
!	!	!	!	!	!	!	!LO:LB:g=original	!	!	!
4A\	6	.	4c/	.	8ff\L	.	8ff\L	.	4.ff\	-dre-
.	.	.	.	.	(32ff\LL	.	(32ff\LL	.	.	.
.	.	.	.	.	32gg\	.	32gg\	.	.	.
.	.	.	.	.	32aa\	.	32aa\	.	.	.
.	.	.	.	.	32bb-X\JJJ)	.	32bb-X\JJJ)	.	.	.
4F\	.	.	4a\	.	8ccc\L	.	8ccc\L	.	.	.
.	.	.	.	.	8cc\J	.	8cc\J	.	8cc\	-a
=63	=63	=63	=63	=63	=63	=63	=63	=63	=63	=63
4E\	6	.	4g\	.	8gg\L	.	8gg\L	.	4.gg\	ſan-
.	.	.	.	.	(32cc\LL	.	(32cc\LL	.	.	.
.	.	.	.	.	32dd\	.	32dd\	.	.	.
.	.	.	.	.	32ee\	.	32ee\	.	.	.
.	.	.	.	.	32ff\JJJ)	.	32ff\JJJ)	.	.	.
!	!	!	!	!	!LO:TX:a:t=problem:mixed beam	!	!LO:TX:a:t=problem:mixed beam	!	!	!
4C/	6	.	4e\	.	8gg\L	.	8gg\L	.	.	.
.	7	.	.	.	8g/J	.	8b-X/J	.	8b-X\	-cto
8F\L	.	.	8f\L	.	8a/L	.	8a/L	.	16a\LL	can-
.	.	.	.	.	.	.	.	.	16f\	.
8F\	.	.	8f\	.	8a/J	.	8cc/J	.	16cc\	-ta-
.	.	.	.	.	.	.	.	.	16a\JJ	.
8F\	6 4	.	8f\	.	4b-X/	.	4dd\	.	4dd\	.
8F\J	-	.	8f\J	.	.	.	.	.	.	.
=64	=64	=64	=64	=64	=64	=64	=64	=64	=64	=64
8F\L	5 3	.	8f\L	.	8a/L	.	8cc\L	.	16cc\LL	.
.	.	.	.	.	.	.	.	.	16ff\	.
8F\	.	.	8f\	.	8a/	.	8ff\	.	16ee\	.
.	.	.	.	.	.	.	.	.	16ff\JJ	.
8E\	6 5	.	8e\	.	8b-X/	.	8gg\	.	16gg\LL	.
.	.	.	.	.	.	.	.	.	16ee\	.
8E\J	6	.	8e\J	.	8g/J	.	8b-X\J	.	16cc\	.
.	.	.	.	.	.	.	.	.	16b-X\JJ	.
!	!	!	!LO:LB:g=original	!	!LO:LB:g=original	!	!	!	!	!
8F\L	.	.	8f\L	.	8f/L	.	8a/L	.	16a\LL	.
.	.	.	.	.	.	.	.	.	16f\	.
8F\	.	.	8f\	.	8a/J	.	8cc/J	.	16cc\	.
.	.	.	.	.	.	.	.	.	16a\JJ	.
8F\	6 4	.	8f\	.	4b-X/	.	4dd\	.	4dd\	.
8F\J	6	.	8f\J	.	.	.	.	.	.	.
=65	=65	=65	=65	=65	=65	=65	=65	=65	=65	=65
!	!	!	!	!	!	!	!LO:TX:a:t=problem:mixed beam	!	!	!
8F\L	5 3	.	8f\L	.	8a/L	.	8cc\L	.	16cc\LL	.
.	.	.	.	.	.	.	.	.	16ff\	.
8F\	.	.	8f\	.	8a/	.	8ff\	.	16ee\	.
.	.	.	.	.	.	.	.	.	16ff\JJ	.
8E\	6 5	.	8e\	.	8b-X/	.	8gg\	.	16gg\LL	.
.	.	.	.	.	.	.	.	.	16ee\	.
8E\J	6	.	8e\J	.	8g/J	.	8b-X/J	.	16cc\	.
.	.	.	.	.	.	.	.	.	16b-X\JJ	.
!	!	!	!LO:TX:a:t=problem:mixed beam	!	!	!	!LO:TX:a:t=problem:mixed beam	!	!	!
8F\L	6	.	8f\L	.	8f/L	.	8a/L	.	8a\	-te
!	!	!	!	!	!	!	!	!	!LO:LB:g=original	!
8A\	.	.	8A/	.	8cc/	.	8ff\J	.	8ff\	can-
8B-X\	.	.	8B-X/	.	8b-X/	.	(16ee\LL	.	16ee\LL	-ta-
.	.	.	.	.	.	.	16dd\)	.	16dd\JJ	.
8B-\J	.	.	8B-/J	.	8g/J	.	(16cc\	.	16cc\LL	.
.	.	.	.	.	.	.	16b-X\JJ)	.	16b-\JJ	.
=66	=66	=66	=66	=66	=66	=66	=66	=66	=66	=66
4c\	6 4	.	4c/	.	4f/	.	32a/LLL	.	32a/LLL	.
.	.	.	.	.	.	.	32g/JJ	.	32g/JJ	.
.	.	.	.	.	.	.	8.f/J	.	8.f/J	.
4C/	5 3	.	4c/	.	4e/	.	4gT/	.	4g/	-te
!	!	!	!	!	!	!	!LO:LB:g=original	!	!	!
8FF/L	.	.	8F/L	.	8ff\L	.	8aa\L	.	8aa\	can-
8GG/	7	.	8G/	.	16ee\L	.	16gg\L	.	16gg\LL	-ta-
.	.	.	.	.	16dd\JJ	.	16ff\JJ	.	16ff\JJ	.
8AA/	6	.	8A/	.	16cc/LL	.	16ee\LL	.	16ee\LL	.
.	.	.	.	.	16b-X/	.	16dd\	.	16dd\JJ	.
8BB-X/J	.	.	8B-X/J	.	16a/	.	16cc\	.	16cc\LL	.
.	.	.	.	.	16g/JJ	.	16b-X\JJ	.	16b-X\JJ	.
!LO:LB:g=original	!	!	!	!	!	!	!	!	!	!
=67	=67	=67	=67	=67	=67	=67	=67	=67	=67	=67
4C\	6 4	.	4c\	.	4f/	.	(32a/LLL	.	(32a/LLL	.
.	.	.	.	.	.	.	32g/JJ	.	32g/JJ	.
.	.	.	.	.	.	.	8.f/J)	.	8.f/J)	.
4CC/	5 3	.	4C/	.	4et/	.	4gT/	.	4gT/	.
!	!	!	!	!	!LO:TX:a:t=problem:mixed beam	!	!LO:TX:a:t=problem:mixed beam	!	!	!
4FF/	.	.	4F/	.	8f/L	.	8f/L	.	4f/	-te.
.	.	.	.	.	(32aa\LL	.	32aa\LL	.	.	.
.	.	.	.	.	32gg\	.	32gg\	.	.	.
.	.	.	.	.	32ff\	.	32ff\	.	.	.
.	.	.	.	.	32ee\JJJ)	.	32ee\JJJ	.	.	.
8r	.	.	8r	.	16dd\LL	.	16dd\LL	.	4r	.
.	.	.	.	.	16aa\	.	16aa\	.	.	.
8F#X\	6 5	.	8d\	.	16cc\	.	16cc\	.	.	.
.	.	.	.	.	16aa\JJ	.	16aa\JJ	.	.	.
=68	=68	=68	=68	=68	=68	=68	=68	=68	=68	=68
!	!	!	!	!	!	!	!	!	!LO:TX:a:t=2	!
4G\	.	.	4g\	.	8b\L	.	8b\L	.	0r	.
.	.	.	.	.	32gg\LL	.	(32gg\LL	.	.	.
.	.	.	.	.	32aa\	.	32aa\	.	.	.
.	.	.	.	.	32bb\	.	32bb\	.	.	.
.	.	.	.	.	32ccc\JJJ	.	32ccc\JJJ)	.	.	.
8r	.	.	8r	.	16ddd\LL	.	16ddd\LL	.	.	.
.	.	.	.	.	16gg\	.	16gg\	.	.	.
8B\	.	.	8g\	.	16ddd\	.	16ddd\	.	.	.
.	.	.	.	.	16ff\JJ	.	16ff\JJ	.	.	.
8c\L	.	.	8g\L	.	16ee\LL	.	16ee\LL	.	.	.
.	.	.	.	.	16gg\	.	16gg\	.	.	.
8E\	.	.	8g\	.	16cc\	.	16cc\	.	.	.
.	.	.	.	.	16ee\JJ	.	16ee\JJ	.	.	.
!	!	!	!	!	!LO:LB:g=original	!	!	!	!	!
8F\	.	.	8f\	.	16a\LL	.	16a\LL	.	.	.
.	.	.	.	.	16cc\	.	16cc\	.	.	.
8G\J	.	.	8d\J	.	16b\	.	16b\	.	.	.
.	.	.	.	.	16dd\JJ	.	16dd\JJ	.	.	.
=69	=69	=69	=69	=69	=69	=69	=69	=69	=69	=69
!LO:TX:a:t=problem:mixed beam	!	!	!	!	!	!	!	!	!LO:TX:a:t=Da Capo al Segno	!
8C/L	.	.	8e\L	.	8cc\L	.	8cc\L	.	.	.
16c\L	.	.	16cc\L	.	16cc\L	.	16cc\L	.	.	.
16G\JJ	.	.	16g\JJ	.	16g\JJ	.	16g\JJ	.	.	.
!	!	!	!LO:LB:g=original	!	!	!	!	!	!	!
16c\LL	.	.	16cc\LL	.	16cc\LL	.	16cc\LL	.	.	.
16G\	.	.	16g\	.	16g\	.	16g\	.	.	.
16E\	.	.	16e\	.	16e\	.	16e\	.	.	.
16G\JJ	.	.	16g\JJ	.	16g\JJ	.	16g\JJ	.	.	.
4C/	.	.	4c/	.	4c/	.	4c/	.	.	.
!LO:TX:a:t=Da Capo al Segno [segno]	!	!	!LO:TX:a:t=Da Capo al Segno [segno]	!	!LO:TX:a:t=Da Capo al Segno [segno]	!	!LO:TX:a:t=Da Capo al Segno [segno]	!	!	!
4r	.	.	4r	.	4r	.	4r	.	.	.
==	==	==	==	==	==	==	==	==	==	==
*-	*-	*-	*-	*-	*-	*-	*-	*-	*-	*-
!!!system-decoration: [(g1)][(g2)]
!!!RDF**kern: >= above
!!!RDF**kern: <= below
!!!ENC: Anna Matuszewska
!!!END: 2020-08-15
!!!YEC: Copyright 2022 Narodowy Instytut Fryderyka Chopina (https://polishscores.org)
!!!YEM: License CC-BY-4.0 (https://creativecommons.org/licenses/by/4.0)
